svgs/light/football-ball.svg

<svg xmlns="http://www.w3.org/2000/svg" viewBox="0 0 448 512"><!--! Font Awesome Pro 6.0.0-alpha3 by @fontawesome - https://fontawesome.com License - https://fontawesome.com/license (Commercial License) --><path d="M434.8 79.26c-4.375-16.37-17.12-29.15-33.63-33.55C391.5 43.12 351.8 32 299.7 32c-63.66 0-145.8 16.51-214.4 85.12c-110.8 111.1-87.53 257.1-72.11 315.6c4.375 16.37 17.17 29.29 33.69 33.69C56.52 469 96.25 480 148.3 480c63.66 0 145.8-16.5 214.4-85.12C473.5 283.8 450.2 137.7 434.8 79.26zM55.15 435.4c-5.365-1.432-9.588-5.641-10.99-10.89c-4.93-18.69-10.73-47.66-11.82-81.58l104.2 104.2C109.6 446.3 82.42 442.8 55.15 435.4zM340.1 372.3c-42.93 42.99-96.42 67.69-159.2 73.98l-147.1-147.1c5.369-52.06 24.8-109.9 74.18-159.4c42.93-42.99 96.41-67.69 159.2-73.98l147.1 147.1C408.9 264.9 389.4 322.8 340.1 372.3zM311.4 64.79c27.03 .9199 54.16 4.424 81.44 11.78c5.367 1.432 9.588 5.641 10.99 10.89c4.928 18.69 10.73 47.66 11.82 81.58L311.4 64.79zM203.3 212.7c-6.25-6.25-16.38-6.25-22.63 0s-6.25 16.38 0 22.63l64.01 64.01c3.125 3.125 7.22 4.688 11.31 4.688s8.189-1.563 11.31-4.688c6.25-6.25 6.25-16.38 0-22.63L203.3 212.7zM228.7 164.7c-6.25 6.25-6.25 16.38 0 22.63l64.01 64.01c3.125 3.125 7.22 4.688 11.31 4.688s8.189-1.563 11.31-4.688c6.25-6.25 6.25-16.38 0-22.63l-64.01-64.01C245.1 158.4 234.9 158.4 228.7 164.7zM155.3 260.7c-6.25-6.25-16.38-6.25-22.63 0c-6.25 6.25-6.25 16.38 0 22.63l64.01 64.01c3.125 3.125 7.22 4.688 11.31 4.688s8.189-1.563 11.31-4.688c6.25-6.25 6.25-16.38 0-22.63L155.3 260.7z"/></svg>

<svg xmlns="http://www.w3.org/2000/svg" viewBox="0 0 448 512"><!-- Font Awesome Pro 6.0.0-alpha2 by @fontawesome - https://fontawesome.com License - https://fontawesome.com/license (Commercial License) --><path d="M434.782 79.293C430.407 62.922 417.61 50.049 401.093 45.646C391.442 43.055 351.753 32 299.653 32C235.995 32 153.815 48.506 85.3 117.119C-25.505 228.225 -2.206 374.219 13.216 432.707C17.591 449.078 30.39 461.951 46.907 466.354C56.556 468.945 96.247 480 148.347 480C212.003 480 294.184 463.494 362.698 394.881C473.505 283.775 450.206 137.781 434.782 79.293ZM55.147 435.434C49.782 434.002 45.559 429.793 44.159 424.547C39.229 405.855 33.425 376.883 32.339 342.965L136.583 447.209C109.552 446.289 82.417 442.785 55.147 435.434ZM340.056 372.27C297.128 415.26 243.638 439.961 180.872 446.248L33.761 299.137C39.13 247.074 58.558 189.25 107.944 139.73C150.87 96.742 204.354 72.039 267.126 65.752L414.239 212.865C408.87 264.928 389.442 322.75 340.056 372.27ZM311.415 64.791C338.448 65.711 365.579 69.215 392.85 76.566C398.218 77.998 402.438 82.207 403.841 87.453C408.768 106.145 414.575 135.117 415.661 169.037L311.415 64.791ZM203.311 212.688C197.061 206.438 186.936 206.438 180.686 212.688S174.436 229.063 180.686 235.312L244.686 299.312C247.811 302.438 251.905 304 255.999 304S264.186 302.438 267.311 299.312C273.561 293.062 273.561 282.937 267.311 276.688L203.311 212.688ZM228.686 164.688C222.436 170.938 222.436 181.063 228.686 187.312L292.686 251.312C295.811 254.438 299.905 256 303.999 256S312.186 254.438 315.311 251.312C321.561 245.062 321.561 234.937 315.311 228.688L251.311 164.688C245.061 158.438 234.936 158.438 228.686 164.688ZM155.311 260.688C149.061 254.438 138.936 254.438 132.686 260.688S126.436 277.063 132.686 283.312L196.686 347.312C199.811 350.438 203.905 352 207.999 352S216.186 350.438 219.311 347.312C225.561 341.062 225.561 330.937 219.311 324.688L155.311 260.688Z"/></svg>
